X: 4
T:John Tremaine's
M:4/4
L:1/8
R:reel
K:D
|:dBAF DEFA|defe d2dB|ABde fed2|gfgf e4|
dBAF DEFA|defe d2dB|!ABde fedc|d2f2 d4:|
|:eaa2 eaa2|fgfe d2dB|ABde fed2|gfgf e4|!
eaa2 eaa2|fgfe d2dB|ABde fedc|d2f2 d4:|
